svg/24/logo-bitcoin.svg

<svg width="24" height="24" viewBox="0 0 24 24" fill="currentColor" xmlns="http://www.w3.org/2000/svg"><path d="M10.7364 14.5875C11.6317 14.8239 13.5883 15.3407 13.8994 14.0907C14.2181 12.8126 12.3205 12.3868 11.3946 12.179C11.2911 12.1558 11.1998 12.1353 11.125 12.1166L10.5225 14.5319C10.5839 14.5472 10.6559 14.5662 10.7364 14.5875Z"/><path d="M11.5806 11.0581C12.327 11.2573 13.9552 11.6918 14.2388 10.5557C14.5284 9.39363 12.946 9.04333 12.1731 8.87225C12.0862 8.85301 12.0095 8.83603 11.9469 8.82042L11.4007 11.011C11.4523 11.0239 11.5128 11.04 11.5806 11.0581Z"/><path fill-rule="evenodd" clip-rule="evenodd" d="M9.57913 21.7006C14.9369 23.0365 20.3628 19.7763 21.6984 14.4191C23.034 9.06168 19.774 3.63486 14.4166 2.29925C9.06038 0.963634 3.6345 4.22423 2.29952 9.58198C0.963279 14.9388 4.22356 20.365 9.57913 21.7006ZM14.2069 8.0523C15.5922 8.52949 16.6053 9.24479 16.4062 10.5754C16.2622 11.5495 15.7222 12.021 15.0053 12.1863C15.9897 12.6988 16.4906 13.4847 16.0134 14.8472C15.4212 16.5394 14.0144 16.6822 12.1435 16.3282L11.6894 18.1478L10.5922 17.8744L11.0403 16.0791C10.756 16.0085 10.4654 15.9335 10.166 15.8522L9.7163 17.656L8.62037 17.3825L9.07443 15.5594C8.972 15.5332 8.86892 15.5063 8.76511 15.4792C8.60922 15.4386 8.45169 15.3975 8.29225 15.3575L6.86445 15.0016L7.40913 13.7457C7.40913 13.7457 8.21756 13.9607 8.20663 13.9447C8.51725 14.0216 8.65506 13.8191 8.70943 13.6841L9.42693 10.8076C9.45387 10.8141 9.48025 10.8207 9.5057 10.8271C9.51834 10.8302 9.53074 10.8333 9.54286 10.8363C9.49911 10.8188 9.45943 10.8076 9.4288 10.7998L9.94067 8.74636C9.95411 8.51324 9.8738 8.21918 9.42943 8.10824C9.44661 8.09668 8.63256 7.91012 8.63256 7.91012L8.92443 6.73825L10.4375 7.11606L10.4363 7.12169C10.6638 7.17825 10.8982 7.232 11.1369 7.28637L11.5866 5.48452L12.6831 5.75795L12.2425 7.5245C12.5369 7.59168 12.8331 7.65949 13.1216 7.73137L13.5591 5.97639L14.6562 6.24982L14.2069 8.0523Z"/></svg>

<svg xmlns="http://www.w3.org/2000/svg" width="24" height="24" fill="currentColor" viewBox="0 0 24 24">
  <path d="M10.736 14.588c.896.236 2.852.753 3.163-.497.32-1.278-1.579-1.704-2.504-1.912a12.153 12.153 0 0 1-.27-.062l-.602 2.415.213.056Zm.844-3.53c.747.2 2.375.634 2.659-.502.29-1.162-1.293-1.513-2.066-1.684a6.64 6.64 0 0 1-.226-.052l-.546 2.191.18.047Z"/>
  <path fill-rule="evenodd" d="M9.58 21.7c5.357 1.337 10.783-1.924 12.118-7.28 1.336-5.358-1.924-10.785-7.281-12.12C9.06.963 3.635 4.223 2.3 9.581c-1.337 5.358 1.924 10.784 7.28 12.12Zm4.627-13.648c1.385.477 2.398 1.193 2.2 2.523-.145.975-.685 1.446-1.402 1.611.985.513 1.486 1.299 1.008 2.661-.592 1.692-1.999 1.835-3.87 1.481l-.454 1.82-1.097-.274.448-1.795c-.284-.07-.575-.146-.874-.227l-.45 1.804-1.096-.273.454-1.824a64.851 64.851 0 0 1-.309-.08l-.473-.121-1.428-.356.545-1.256s.809.215.798.199c.31.077.448-.126.502-.26l.718-2.877.079.02.037.008a.905.905 0 0 0-.114-.036l.512-2.054c.013-.233-.067-.527-.512-.638.018-.011-.796-.198-.796-.198l.291-1.172 1.514.378-.002.006c.228.056.462.11.7.164l.45-1.801 1.097.273-.44 1.766c.294.068.59.135.879.207l.437-1.755 1.097.274-.45 1.802Z" clip-rule="evenodd"/>
</svg>
